X: 18163
T: Humours Of Drinagh, The
R: jig
M: 6/8
K: Dmajor
|:F2 F ABc|dfd ecA|F2 F ABc|dcA G3|
F2 F ABc|d2 d ecA|f2 f gec|Adc d3:|
|:f2 f gfg|agf gfe|f2 f g2 g|agf g3|
agf g2 e|f2 d ecA|f2 f gec|Adc d3:|

